raw/symbols/nvda.svg

<svg width="36" height="36" viewBox="0 0 36 36" fill="none" xmlns="http://www.w3.org/2000/svg">
<g clip-path="url(#clip0_11795_279193)">
<rect width="36" height="36" rx="18" fill="#65DB9B"/>
<path d="M16.503 14.026V11.9931C16.6999 11.9785 16.9001 11.9684 17.1026 11.9616C22.6612 11.7873 26.3085 16.7384 26.3085 16.7384C26.3085 16.7384 22.371 22.2093 18.1466 22.2093C17.588 22.2117 17.0328 22.1228 16.503 21.946V15.7833C18.6675 16.0443 19.1017 17.0005 20.4034 19.1695L23.2969 16.7294C22.6024 15.8913 21.7373 15.2108 20.7592 14.7332C19.7812 14.2556 18.7126 13.9919 17.6246 13.9596C17.2487 13.9616 16.8731 13.9838 16.4996 14.026M16.4996 -0.562988V10.3495C16.6987 10.3338 16.899 10.3214 17.0992 10.3135C24.8291 10.0525 29.8657 16.6529 29.8657 16.6529C29.8657 16.6529 24.081 23.6875 18.0532 23.6875C17.5316 23.6875 17.011 23.6415 16.4974 23.5503V25.4268C16.9268 25.4822 17.3593 25.5104 17.7922 25.5111C23.4004 25.5111 27.456 22.6469 31.3834 19.2573C32.0336 19.7781 34.6999 21.0471 35.2477 21.6029C31.5139 24.7281 22.8109 27.2481 17.8777 27.2481C17.4019 27.2481 16.9451 27.2189 16.4962 27.1761V37.6881H37.8116V-0.561864L16.4996 -0.562988ZM16.4996 21.9471V23.5491C11.3122 22.6244 9.87337 17.2323 9.87337 17.2323C11.6584 15.4483 13.993 14.3186 16.4996 14.026V15.7844H16.4917C15.7567 15.7752 15.0288 15.9289 14.3602 16.2344C13.6917 16.54 13.0991 16.9899 12.6251 17.5518C12.6251 17.5518 13.5757 20.965 16.4996 21.9471ZM7.28699 16.9983C8.38431 15.5631 9.77201 14.3755 11.3595 13.5131C12.9469 12.6506 14.6984 12.1327 16.4996 11.9931V10.3473C9.70123 10.8929 3.81299 16.6473 3.81299 16.6473C3.81299 16.6473 7.14748 26.2874 16.4996 27.1705V25.4211C9.63936 24.5628 7.29036 16.9994 7.29036 16.9994L7.28699 16.9983Z" fill="#404141"/>
</g>
<defs>
<clipPath id="clip0_11795_279193">
<rect width="36" height="36" rx="18" fill="white"/>
</clipPath>
</defs>
</svg>

<svg xmlns="http://www.w3.org/2000/svg" width="36" height="36" fill="none"><g clip-path="url(#a)"><rect width="36" height="36" fill="#65DB9B" rx="18"/><path fill="#404141" d="M16.503 14.026v-2.033c.197-.014.397-.025.6-.031 5.558-.175 9.205 4.776 9.205 4.776s-3.937 5.471-8.161 5.471a5.123 5.123 0 0 1-1.644-.263v-6.163c2.165.261 2.599 1.217 3.9 3.386l2.894-2.44a7.662 7.662 0 0 0-5.672-2.77 10.52 10.52 0 0 0-1.125.067m0-14.589V10.35c.199-.016.399-.029.6-.037 7.73-.26 12.766 6.34 12.766 6.34s-5.785 7.035-11.813 7.035a8.899 8.899 0 0 1-1.556-.138v1.877c.43.055.862.083 1.295.084 5.608 0 9.664-2.864 13.591-6.254.65.521 3.317 1.79 3.865 2.346-3.734 3.125-12.437 5.645-17.37 5.645-.476 0-.933-.03-1.382-.072v10.512h21.316V-.562L16.5-.563Zm0 22.51v1.602c-5.188-.925-6.627-6.317-6.627-6.317a11.213 11.213 0 0 1 6.627-3.206v1.758h-.008a4.979 4.979 0 0 0-3.867 1.768s.95 3.413 3.875 4.395Zm-9.213-4.949a12.845 12.845 0 0 1 9.213-5.005v-1.646c-6.799.546-12.687 6.3-12.687 6.3s3.334 9.64 12.687 10.524v-1.75C9.64 24.563 7.29 17 7.29 17h-.003Z"/></g><defs><clipPath id="a"><rect width="36" height="36" fill="#fff" rx="18"/></clipPath></defs></svg>
